storage/app/icons/phosphoricons/regular/currency-cny.svg

<svg xmlns="http://www.w3.org/2000/svg" fill="currentColor" viewBox="0 0 256 256"><path d="M56 56a8 8 0 0 1 8-8h128a8 8 0 0 1 0 16H64a8 8 0 0 1-8-8m160 104a8 8 0 0 0-8 8v16h-32a16 16 0 0 1-16-16v-48h48a8 8 0 0 0 0-16H48a8 8 0 0 0 0 16h48v8a56.06 56.06 0 0 1-56 56 8 8 0 0 0 0 16 72.08 72.08 0 0 0 72-72v-8h32v48a32 32 0 0 0 32 32h40a8 8 0 0 0 8-8v-24a8 8 0 0 0-8-8"/></svg>

<svg xmlns="http://www.w3.org/2000/svg" viewBox="0 0 256 256" fill="currentColor"><path d="M56,56a8,8,0,0,1,8-8H192a8,8,0,0,1,0,16H64A8,8,0,0,1,56,56ZM216,160a8,8,0,0,0-8,8v16H176a16,16,0,0,1-16-16V120h48a8,8,0,0,0,0-16H48a8,8,0,0,0,0,16H96v8a56.06,56.06,0,0,1-56,56,8,8,0,0,0,0,16,72.08,72.08,0,0,0,72-72v-8h32v48a32,32,0,0,0,32,32h40a8,8,0,0,0,8-8V168A8,8,0,0,0,216,160Z"/></svg>
